Newaita-dark/apps/16/openra-d2k.svg

<svg height="16pt" viewBox="0 0 16 16" width="16pt" xmlns="http://www.w3.org/2000/svg" xmlns:xlink="http://www.w3.org/1999/xlink"><linearGradient id="a"><stop offset="0" stop-opacity=".313725"/><stop offset=".222222" stop-opacity=".27451"/><stop offset="1" stop-opacity="0"/></linearGradient><radialGradient id="b" cx="450.90894" cy="189.57936" gradientTransform="matrix(.00000009 -.0390662 -.0703192 -.00000005 22.261576 31.797666)" gradientUnits="userSpaceOnUse" r="21.166656" xlink:href="#a"/><radialGradient id="c" cx="450.90894" cy="189.57936" gradientTransform="matrix(-.00000009 .0390662 .0703192 .00000005 -6.38506 -3.763741)" gradientUnits="userSpaceOnUse" r="21.166656" xlink:href="#a"/><radialGradient id="d" cx="450.90894" cy="189.57936" gradientTransform="matrix(-.00000009 -.0390662 .0703192 -.00000005 -6.38506 31.797666)" gradientUnits="userSpaceOnUse" r="21.166656" xlink:href="#a"/><radialGradient id="e" cx="450.90894" cy="189.57936" gradientTransform="matrix(.00000009 .0390662 -.0703192 .00000005 22.261575 -3.763741)" gradientUnits="userSpaceOnUse" r="21.166656" xlink:href="#a"/><linearGradient id="f" gradientTransform="matrix(.00668003 0 0 .031253 6.232693 6.719392)" gradientUnits="userSpaceOnUse" x1="255.32306" x2="255.32304" y1="233.5" y2="254.66666"><stop offset="0" stop-opacity=".27451"/><stop offset="1" stop-opacity="0"/></linearGradient><linearGradient id="g" gradientUnits="userSpaceOnUse" x1="3.3076125" x2="3.3076125" y1="5.74795506249" y2="2.440346"><stop offset="0" stop-color="#ff7043"/><stop offset="1" stop-color="#ffab91"/></linearGradient><linearGradient id="h" gradientUnits="userSpaceOnUse" x1="7.938262" x2="7.938262" y1="14.0169675" y2="1.44805256249"><stop offset="0" stop-color="#8d6e63"/><stop offset="1" stop-color="#a1887f"/></linearGradient><linearGradient id="i" gradientUnits="userSpaceOnUse" x1="10.5843495" x2="10.5843495" y1="12.03240906249" y2="8.7248"><stop offset="0" stop-color="#78909c"/><stop offset="1" stop-color="#b0bec5"/></linearGradient><path d="m9.097656 14.015625h1.320313v-.660156h-1.320313zm0 0" fill="url(#b)"/><path d="m6.78125 14.015625h-1.324219v.664063h1.324219zm0 0" fill="url(#c)"/><path d="m6.78125 14.015625h-1.324219v-.660156h1.324219zm0 0" fill="url(#d)"/><path d="m9.097656 14.015625h1.320313v.664063h-1.320313zm0 0" fill="url(#e)"/><path d="m6.78125 13.851562h2.316406v.828126h-2.316406zm0 0" fill="url(#f)"/><path d="m3.308594 2.441406c.914062 0 1.652344.738282 1.652344 1.652344s-.738282 1.652344-1.652344 1.652344c-.914063 0-1.65625-.738282-1.65625-1.652344s.742187-1.652344 1.65625-1.652344zm0 0" fill="url(#g)"/><path d="m3.785156 3.121094c-.164062 0-.296875.042968-.386718.164062-.503907.671875-.832032.074219-1.332032.257813-.132812.023437-.234375.015625-.3125-.019531-.0625.175781-.101562.371093-.101562.570312 0 .027344.003906.050781.003906.078125.117188.078125.21875.160156.273438.199219.550781.273437.808593.019531 1.378906-.277344.382812-.167969 1.046875-.136719 1.644531-.144531-.015625-.1875-.0625-.367188-.136719-.535157-.015625-.015624-.03125-.03125-.046875-.050781-.355469-.117187-.710937-.242187-.984375-.242187zm0 0" fill="#fff" fill-opacity=".313725"/><path d="m3.308594 2.394531c-.941406 0-1.703125.757813-1.703125 1.699219s.761719 1.699219 1.703125 1.699219 1.699218-.757813 1.699218-1.699219-.757812-1.699219-1.699218-1.699219zm0 .09375c.890625 0 1.605468.714844 1.605468 1.605469s-.714843 1.605469-1.605468 1.605469-1.609375-.714844-1.609375-1.605469.71875-1.605469 1.609375-1.605469zm0 0" fill="#212121"/><path d="m7.9375 1.449219c3.472656 0 6.285156 2.8125 6.285156 6.285156 0 3.46875-2.8125 6.28125-6.285156 6.28125-3.46875 0-6.285156-2.8125-6.285156-6.28125 0-3.472656 2.816406-6.285156 6.285156-6.285156zm0 0" fill="url(#h)"/><g fill="#fff"><path d="m4.433594 2.511719c-.789063.527343-1.449219 1.230469-1.929688 2.050781.410156.222656.804688.386719 1.132813.191406.421875-.226562 1.640625.742188 1.984375.992188 1.324218.664062 1.941406.054687 3.308594-.660156 1.050781-.457032 2.957031-.292969 4.53125-.363282-.277344-.511718-.621094-.976562-1.023438-1.386718-1.359375-.457032-2.722656-.949219-3.289062-.195313-1.210938 1.613281-1.992188.183594-3.195313.621094-1.046875.203125-1.265625-.546875-1.519531-1.25zm0 0" fill-opacity=".313725"/><path d="m13.671875 10.316406c-.660156.304688-1.144531.441406-1.765625.394532-.71875.179687-.066406.992187-.660156.992187-.734375 0-3.308594 1.652344-4.960938.660156-.695312-.140625-1.929687-.34375-2.949218-.339843 1.148437 1.226562 2.78125 1.992187 4.601562 1.992187.816406 0 1.59375-.152344 2.308594-.433594 1.539062-.867187 2.894531-2.085937 3.425781-3.265625zm0 0" fill-opacity=".313725"/><path d="m3.320312 5.710938c-.105468 0-.21875.011718-.34375.035156-.21875.128906-.082031.496094-.332031.664062-.101562.171875-.445312-.109375-.757812-.382812-.152344.542968-.234375 1.113281-.234375 1.707031 0 .238281.015625.476563.039062.707031.671875.261719 1.398438.9375 1.945313.613282.421875-.230469 1.640625.742187 1.984375.992187 1.324218.664063 1.941406.054687 3.308594-.660156 1.199218-.523438 3.511718-.234375 5.171874-.414063.078126-.398437.121094-.816406.121094-1.238281 0-.464844-.050781-.917969-.144531-1.351563-1.632813-.292968-2.738281.347657-3.492187 1.351563-1.210938 1.613281-3.429688-.113281-4.632813.328125-1.886719.367188-1.089844-2.359375-2.632813-2.351562zm0 0" fill-opacity=".313725"/><path d="m7.9375 1.449219c-3.480469 0-6.285156 2.800781-6.285156 6.285156 0 .039063.003906.078125.003906.121094.0625-3.425781 2.839844-6.164063 6.28125-6.164063s6.21875 2.738282 6.285156 6.164063c0-.042969 0-.082031 0-.121094 0-3.484375-2.804687-6.285156-6.285156-6.285156zm0 0" fill-opacity=".392157"/></g><path d="m7.9375 14.015625c-3.480469 0-6.285156-2.800781-6.285156-6.28125 0-.042969.003906-.082031.003906-.125.0625 3.425781 2.839844 6.164063 6.28125 6.164063s6.21875-2.738282 6.285156-6.164063v.125c0 3.480469-2.804687 6.28125-6.285156 6.28125zm0 0" fill-opacity=".235294"/><path d="m7.9375 1.402344c-3.507812 0-6.332031 2.824218-6.332031 6.332031 0 3.503906 2.824219 6.328125 6.332031 6.328125s6.332031-2.824219 6.332031-6.328125c0-3.507813-2.824219-6.332031-6.332031-6.332031zm0 .09375c3.457031 0 6.238281 2.78125 6.238281 6.238281 0 3.453125-2.78125 6.234375-6.238281 6.234375s-6.238281-2.78125-6.238281-6.234375c0-3.457031 2.78125-6.238281 6.238281-6.238281zm0 0" fill="#212121"/><path d="m10.585938 8.726562c.910156 0 1.652343.738282 1.652343 1.652344 0 .914063-.742187 1.652344-1.652343 1.652344-.914063 0-1.65625-.738281-1.65625-1.652344 0-.914062.742187-1.652344 1.65625-1.652344zm0 0" fill="url(#i)"/><path d="m11.0625 9.40625c-.164062 0-.300781.042969-.386719.160156-.503906.675782-.832031.078125-1.332031.261719-.132812.023437-.234375.015625-.3125-.023437-.066406.179687-.101562.371093-.101562.574218 0 .027344 0 .050782.003906.078125.117187.078125.21875.160157.273437.199219.550781.273438.808594.019531 1.378907-.277344.382812-.167968 1.046874-.136718 1.644531-.144531-.015625-.191406-.0625-.371094-.136719-.535156-.015625-.015625-.03125-.035157-.046875-.050781-.355469-.117188-.710937-.242188-.984375-.242188zm0 0" fill="#fff" fill-opacity=".313725"/><path d="m10.585938 8.726562c-.917969 0-1.65625.734376-1.65625 1.652344 0 .019532 0 .042969.003906.0625.03125-.886718.753906-1.59375 1.652344-1.59375.894531 0 1.617187.707032 1.652343 1.59375 0-.019531 0-.042968 0-.0625 0-.917968-.738281-1.652344-1.652343-1.652344zm0 0" fill="#fff" fill-opacity=".392157"/><path d="m10.585938 8.679688c-.941407 0-1.703126.757812-1.703126 1.699218s.761719 1.699219 1.703126 1.699219c.941406 0 1.699218-.757813 1.699218-1.699219s-.757812-1.699218-1.699218-1.699218zm0 .09375c.890624 0 1.605468.714843 1.605468 1.605468s-.714844 1.605469-1.605468 1.605469c-.894532 0-1.609376-.714844-1.609376-1.605469s.714844-1.605468 1.609376-1.605468zm0 0" fill="#212121"/><path d="m8.933594 10.503906c0 .039063-.003906.082032-.003906.121094 0 .917969.738281 1.65625 1.65625 1.65625.914062 0 1.652343-.738281 1.652343-1.65625 0-.039062 0-.082031-.003906-.121094-.0625.855469-.777344 1.527344-1.648437 1.527344-.875 0-1.585938-.671875-1.652344-1.527344zm0 0" fill-opacity=".235294"/></svg>

<?xml version="1.0" encoding="UTF-8"?>
<svg xmlns="http://www.w3.org/2000/svg" xmlns:xlink="http://www.w3.org/1999/xlink" width="16pt" height="16pt" viewBox="0 0 16 16" version="1.1">
<defs>
<radialGradient id="radial0" gradientUnits="userSpaceOnUse" cx="450.90894" cy="189.57936" fx="450.90894" fy="189.57936" r="21.166656" gradientTransform="matrix(0.0000000870852,-0.0390662,-0.0703192,-0.0000000507693,22.261576,31.797666)">
<stop offset="0" style="stop-color:rgb(0%,0%,0%);stop-opacity:0.313725;"/>
<stop offset="0.222222" style="stop-color:rgb(0%,0%,0%);stop-opacity:0.27451;"/>
<stop offset="1" style="stop-color:rgb(0%,0%,0%);stop-opacity:0;"/>
</radialGradient>
<radialGradient id="radial1" gradientUnits="userSpaceOnUse" cx="450.90894" cy="189.57936" fx="450.90894" fy="189.57936" r="21.166656" gradientTransform="matrix(-0.0000000870852,0.0390662,0.0703192,0.0000000507693,-6.38506,-3.763741)">
<stop offset="0" style="stop-color:rgb(0%,0%,0%);stop-opacity:0.313725;"/>
<stop offset="0.222222" style="stop-color:rgb(0%,0%,0%);stop-opacity:0.27451;"/>
<stop offset="1" style="stop-color:rgb(0%,0%,0%);stop-opacity:0;"/>
</radialGradient>
<radialGradient id="radial2" gradientUnits="userSpaceOnUse" cx="450.90894" cy="189.57936" fx="450.90894" fy="189.57936" r="21.166656" gradientTransform="matrix(-0.0000000870852,-0.0390662,0.0703192,-0.0000000507693,-6.38506,31.797666)">
<stop offset="0" style="stop-color:rgb(0%,0%,0%);stop-opacity:0.313725;"/>
<stop offset="0.222222" style="stop-color:rgb(0%,0%,0%);stop-opacity:0.27451;"/>
<stop offset="1" style="stop-color:rgb(0%,0%,0%);stop-opacity:0;"/>
</radialGradient>
<radialGradient id="radial3" gradientUnits="userSpaceOnUse" cx="450.90894" cy="189.57936" fx="450.90894" fy="189.57936" r="21.166656" gradientTransform="matrix(0.0000000870852,0.0390662,-0.0703192,0.0000000507693,22.261575,-3.763741)">
<stop offset="0" style="stop-color:rgb(0%,0%,0%);stop-opacity:0.313725;"/>
<stop offset="0.222222" style="stop-color:rgb(0%,0%,0%);stop-opacity:0.27451;"/>
<stop offset="1" style="stop-color:rgb(0%,0%,0%);stop-opacity:0;"/>
</radialGradient>
<linearGradient id="linear0" gradientUnits="userSpaceOnUse" x1="255.32306" y1="233.5" x2="255.32304" y2="254.66666" gradientTransform="matrix(0.00668003,0,0,0.031253,6.232693,6.719392)">
<stop offset="0" style="stop-color:rgb(0%,0%,0%);stop-opacity:0.27451;"/>
<stop offset="1" style="stop-color:rgb(0%,0%,0%);stop-opacity:0;"/>
</linearGradient>
<linearGradient id="linear1" gradientUnits="userSpaceOnUse" x1="317.5" y1="148.83333" x2="317.5" y2="43" gradientTransform="matrix(0.031253,0,0,0.031253,-6.615215,1.096467)">
<stop offset="0" style="stop-color:rgb(100%,43.921569%,26.27451%);stop-opacity:1;"/>
<stop offset="1" style="stop-color:rgb(100%,67.058824%,56.862745%);stop-opacity:1;"/>
</linearGradient>
<linearGradient id="linear2" gradientUnits="userSpaceOnUse" x1="254" y1="233.5" x2="254" y2="-168.66667" gradientTransform="matrix(0.031253,0,0,0.031253,-0.000000296623,6.719392)">
<stop offset="0" style="stop-color:rgb(55.294118%,43.137255%,38.823529%);stop-opacity:1;"/>
<stop offset="1" style="stop-color:rgb(63.137255%,53.333333%,49.803922%);stop-opacity:1;"/>
</linearGradient>
<linearGradient id="linear3" gradientUnits="userSpaceOnUse" x1="317.5" y1="148.83333" x2="317.5" y2="43" gradientTransform="matrix(0.031253,0,0,0.031253,0.661522,7.380921)">
<stop offset="0" style="stop-color:rgb(47.058824%,56.470588%,61.176471%);stop-opacity:1;"/>
<stop offset="1" style="stop-color:rgb(69.019608%,74.509804%,77.254902%);stop-opacity:1;"/>
</linearGradient>
</defs>
<g id="surface1">
<path style=" stroke:none;fill-rule:nonzero;fill:url(#radial0);" d="M 9.097656 14.015625 L 10.417969 14.015625 L 10.417969 13.355469 L 9.097656 13.355469 Z M 9.097656 14.015625 "/>
<path style=" stroke:none;fill-rule:nonzero;fill:url(#radial1);" d="M 6.78125 14.015625 L 5.457031 14.015625 L 5.457031 14.679688 L 6.78125 14.679688 Z M 6.78125 14.015625 "/>
<path style=" stroke:none;fill-rule:nonzero;fill:url(#radial2);" d="M 6.78125 14.015625 L 5.457031 14.015625 L 5.457031 13.355469 L 6.78125 13.355469 Z M 6.78125 14.015625 "/>
<path style=" stroke:none;fill-rule:nonzero;fill:url(#radial3);" d="M 9.097656 14.015625 L 10.417969 14.015625 L 10.417969 14.679688 L 9.097656 14.679688 Z M 9.097656 14.015625 "/>
<path style=" stroke:none;fill-rule:nonzero;fill:url(#linear0);" d="M 6.78125 13.851562 L 9.097656 13.851562 L 9.097656 14.679688 L 6.78125 14.679688 Z M 6.78125 13.851562 "/>
<path style=" stroke:none;fill-rule:nonzero;fill:url(#linear1);" d="M 3.308594 2.441406 C 4.222656 2.441406 4.960938 3.179688 4.960938 4.09375 C 4.960938 5.007812 4.222656 5.746094 3.308594 5.746094 C 2.394531 5.746094 1.652344 5.007812 1.652344 4.09375 C 1.652344 3.179688 2.394531 2.441406 3.308594 2.441406 Z M 3.308594 2.441406 "/>
<path style=" stroke:none;fill-rule:nonzero;fill:rgb(100%,100%,100%);fill-opacity:0.313725;" d="M 3.785156 3.121094 C 3.621094 3.121094 3.488281 3.164062 3.398438 3.285156 C 2.894531 3.957031 2.566406 3.359375 2.066406 3.542969 C 1.933594 3.566406 1.832031 3.558594 1.753906 3.523438 C 1.691406 3.699219 1.652344 3.894531 1.652344 4.09375 C 1.652344 4.121094 1.65625 4.144531 1.65625 4.171875 C 1.773438 4.25 1.875 4.332031 1.929688 4.371094 C 2.480469 4.644531 2.738281 4.390625 3.308594 4.09375 C 3.691406 3.925781 4.355469 3.957031 4.953125 3.949219 C 4.9375 3.761719 4.890625 3.582031 4.816406 3.414062 C 4.800781 3.398438 4.785156 3.382812 4.769531 3.363281 C 4.414062 3.246094 4.058594 3.121094 3.785156 3.121094 Z M 3.785156 3.121094 "/>
<path style=" stroke:none;fill-rule:nonzero;fill:rgb(12.941176%,12.941176%,12.941176%);fill-opacity:1;" d="M 3.308594 2.394531 C 2.367188 2.394531 1.605469 3.152344 1.605469 4.09375 C 1.605469 5.035156 2.367188 5.792969 3.308594 5.792969 C 4.25 5.792969 5.007812 5.035156 5.007812 4.09375 C 5.007812 3.152344 4.25 2.394531 3.308594 2.394531 Z M 3.308594 2.488281 C 4.199219 2.488281 4.914062 3.203125 4.914062 4.09375 C 4.914062 4.984375 4.199219 5.699219 3.308594 5.699219 C 2.417969 5.699219 1.699219 4.984375 1.699219 4.09375 C 1.699219 3.203125 2.417969 2.488281 3.308594 2.488281 Z M 3.308594 2.488281 "/>
<path style=" stroke:none;fill-rule:nonzero;fill:url(#linear2);" d="M 7.9375 1.449219 C 11.410156 1.449219 14.222656 4.261719 14.222656 7.734375 C 14.222656 11.203125 11.410156 14.015625 7.9375 14.015625 C 4.46875 14.015625 1.652344 11.203125 1.652344 7.734375 C 1.652344 4.261719 4.46875 1.449219 7.9375 1.449219 Z M 7.9375 1.449219 "/>
<path style=" stroke:none;fill-rule:nonzero;fill:rgb(100%,100%,100%);fill-opacity:0.313725;" d="M 4.433594 2.511719 C 3.644531 3.039062 2.984375 3.742188 2.503906 4.5625 C 2.914062 4.785156 3.308594 4.949219 3.636719 4.753906 C 4.058594 4.527344 5.277344 5.496094 5.621094 5.746094 C 6.945312 6.410156 7.5625 5.800781 8.929688 5.085938 C 9.980469 4.628906 11.886719 4.792969 13.460938 4.722656 C 13.183594 4.210938 12.839844 3.746094 12.4375 3.335938 C 11.078125 2.878906 9.714844 2.386719 9.148438 3.140625 C 7.9375 4.753906 7.15625 3.324219 5.953125 3.761719 C 4.90625 3.964844 4.6875 3.214844 4.433594 2.511719 Z M 4.433594 2.511719 "/>
<path style=" stroke:none;fill-rule:nonzero;fill:rgb(100%,100%,100%);fill-opacity:0.313725;" d="M 13.671875 10.316406 C 13.011719 10.621094 12.527344 10.757812 11.90625 10.710938 C 11.1875 10.890625 11.839844 11.703125 11.246094 11.703125 C 10.511719 11.703125 7.9375 13.355469 6.285156 12.363281 C 5.589844 12.222656 4.355469 12.019531 3.335938 12.023438 C 4.484375 13.25 6.117188 14.015625 7.9375 14.015625 C 8.753906 14.015625 9.53125 13.863281 10.246094 13.582031 C 11.785156 12.714844 13.140625 11.496094 13.671875 10.316406 Z M 13.671875 10.316406 "/>
<path style=" stroke:none;fill-rule:nonzero;fill:rgb(100%,100%,100%);fill-opacity:0.313725;" d="M 3.320312 5.710938 C 3.214844 5.710938 3.101562 5.722656 2.976562 5.746094 C 2.757812 5.875 2.894531 6.242188 2.644531 6.410156 C 2.542969 6.582031 2.199219 6.300781 1.886719 6.027344 C 1.734375 6.570312 1.652344 7.140625 1.652344 7.734375 C 1.652344 7.972656 1.667969 8.210938 1.691406 8.441406 C 2.363281 8.703125 3.089844 9.378906 3.636719 9.054688 C 4.058594 8.824219 5.277344 9.796875 5.621094 10.046875 C 6.945312 10.710938 7.5625 10.101562 8.929688 9.386719 C 10.128906 8.863281 12.441406 9.152344 14.101562 8.972656 C 14.179688 8.574219 14.222656 8.15625 14.222656 7.734375 C 14.222656 7.269531 14.171875 6.816406 14.078125 6.382812 C 12.445312 6.089844 11.339844 6.730469 10.585938 7.734375 C 9.375 9.347656 7.15625 7.621094 5.953125 8.0625 C 4.066406 8.429688 4.863281 5.703125 3.320312 5.710938 Z M 3.320312 5.710938 "/>
<path style=" stroke:none;fill-rule:nonzero;fill:rgb(100%,100%,100%);fill-opacity:0.392157;" d="M 7.9375 1.449219 C 4.457031 1.449219 1.652344 4.25 1.652344 7.734375 C 1.652344 7.773438 1.65625 7.8125 1.65625 7.855469 C 1.71875 4.429688 4.496094 1.691406 7.9375 1.691406 C 11.378906 1.691406 14.15625 4.429688 14.222656 7.855469 C 14.222656 7.8125 14.222656 7.773438 14.222656 7.734375 C 14.222656 4.25 11.417969 1.449219 7.9375 1.449219 Z M 7.9375 1.449219 "/>
<path style=" stroke:none;fill-rule:nonzero;fill:rgb(0%,0%,0%);fill-opacity:0.235294;" d="M 7.9375 14.015625 C 4.457031 14.015625 1.652344 11.214844 1.652344 7.734375 C 1.652344 7.691406 1.65625 7.652344 1.65625 7.609375 C 1.71875 11.035156 4.496094 13.773438 7.9375 13.773438 C 11.378906 13.773438 14.15625 11.035156 14.222656 7.609375 C 14.222656 7.652344 14.222656 7.691406 14.222656 7.734375 C 14.222656 11.214844 11.417969 14.015625 7.9375 14.015625 Z M 7.9375 14.015625 "/>
<path style=" stroke:none;fill-rule:nonzero;fill:rgb(12.941176%,12.941176%,12.941176%);fill-opacity:1;" d="M 7.9375 1.402344 C 4.429688 1.402344 1.605469 4.226562 1.605469 7.734375 C 1.605469 11.238281 4.429688 14.0625 7.9375 14.0625 C 11.445312 14.0625 14.269531 11.238281 14.269531 7.734375 C 14.269531 4.226562 11.445312 1.402344 7.9375 1.402344 Z M 7.9375 1.496094 C 11.394531 1.496094 14.175781 4.277344 14.175781 7.734375 C 14.175781 11.1875 11.394531 13.96875 7.9375 13.96875 C 4.480469 13.96875 1.699219 11.1875 1.699219 7.734375 C 1.699219 4.277344 4.480469 1.496094 7.9375 1.496094 Z M 7.9375 1.496094 "/>
<path style=" stroke:none;fill-rule:nonzero;fill:url(#linear3);" d="M 10.585938 8.726562 C 11.496094 8.726562 12.238281 9.464844 12.238281 10.378906 C 12.238281 11.292969 11.496094 12.03125 10.585938 12.03125 C 9.671875 12.03125 8.929688 11.292969 8.929688 10.378906 C 8.929688 9.464844 9.671875 8.726562 10.585938 8.726562 Z M 10.585938 8.726562 "/>
<path style=" stroke:none;fill-rule:nonzero;fill:rgb(100%,100%,100%);fill-opacity:0.313725;" d="M 11.0625 9.40625 C 10.898438 9.40625 10.761719 9.449219 10.675781 9.566406 C 10.171875 10.242188 9.84375 9.644531 9.34375 9.828125 C 9.210938 9.851562 9.109375 9.84375 9.03125 9.804688 C 8.964844 9.984375 8.929688 10.175781 8.929688 10.378906 C 8.929688 10.40625 8.929688 10.429688 8.933594 10.457031 C 9.050781 10.535156 9.152344 10.617188 9.207031 10.65625 C 9.757812 10.929688 10.015625 10.675781 10.585938 10.378906 C 10.96875 10.210938 11.632812 10.242188 12.230469 10.234375 C 12.214844 10.042969 12.167969 9.863281 12.09375 9.699219 C 12.078125 9.683594 12.0625 9.664062 12.046875 9.648438 C 11.691406 9.53125 11.335938 9.40625 11.0625 9.40625 Z M 11.0625 9.40625 "/>
<path style=" stroke:none;fill-rule:nonzero;fill:rgb(100%,100%,100%);fill-opacity:0.392157;" d="M 10.585938 8.726562 C 9.667969 8.726562 8.929688 9.460938 8.929688 10.378906 C 8.929688 10.398438 8.929688 10.421875 8.933594 10.441406 C 8.964844 9.554688 9.6875 8.847656 10.585938 8.847656 C 11.480469 8.847656 12.203125 9.554688 12.238281 10.441406 C 12.238281 10.421875 12.238281 10.398438 12.238281 10.378906 C 12.238281 9.460938 11.5 8.726562 10.585938 8.726562 Z M 10.585938 8.726562 "/>
<path style=" stroke:none;fill-rule:nonzero;fill:rgb(12.941176%,12.941176%,12.941176%);fill-opacity:1;" d="M 10.585938 8.679688 C 9.644531 8.679688 8.882812 9.4375 8.882812 10.378906 C 8.882812 11.320312 9.644531 12.078125 10.585938 12.078125 C 11.527344 12.078125 12.285156 11.320312 12.285156 10.378906 C 12.285156 9.4375 11.527344 8.679688 10.585938 8.679688 Z M 10.585938 8.773438 C 11.476562 8.773438 12.191406 9.488281 12.191406 10.378906 C 12.191406 11.269531 11.476562 11.984375 10.585938 11.984375 C 9.691406 11.984375 8.976562 11.269531 8.976562 10.378906 C 8.976562 9.488281 9.691406 8.773438 10.585938 8.773438 Z M 10.585938 8.773438 "/>
<path style=" stroke:none;fill-rule:nonzero;fill:rgb(0%,0%,0%);fill-opacity:0.235294;" d="M 8.933594 10.503906 C 8.933594 10.542969 8.929688 10.585938 8.929688 10.625 C 8.929688 11.542969 9.667969 12.28125 10.585938 12.28125 C 11.5 12.28125 12.238281 11.542969 12.238281 10.625 C 12.238281 10.585938 12.238281 10.542969 12.234375 10.503906 C 12.171875 11.359375 11.457031 12.03125 10.585938 12.03125 C 9.710938 12.03125 9 11.359375 8.933594 10.503906 Z M 8.933594 10.503906 "/>
</g>
</svg>
